src/assets/images/settings/icon_pooldash_plus.svg

<svg fill="none" height="32" viewBox="0 0 32 32" width="32" xmlns="http://www.w3.org/2000/svg"><g fill="#00a396"><rect height="32" opacity=".06" rx="10" width="32"/><path d="m15.3438 10.5781c.1328 0 .2343-.0937.25-.2265.1953-1.24222.1874-1.24222 1.5156-1.50785.1406-.02344.2344-.11719.2344-.25 0-.14063-.1016-.23437-.2422-.25781-1.3204-.19532-1.3125-.21094-1.5078-1.5-.0157-.13282-.1172-.23438-.25-.23438-.1407 0-.2344.10156-.25.24219-.1797 1.22656-.1797 1.22656-1.5235 1.49219-.1328.03125-.2265.11718-.2265.25781 0 .13281.0937.22656.25.25 1.3046.23437 1.3124.23437 1.5 1.50005.0156.1406.1093.2343.25.2343zm-3.8204 5.7657c.211 0 .3828-.1563.4063-.3594.2656-2.0078.2891-2.0391 2.4375-2.4219.2109-.0313.3516-.1953.3516-.4063 0-.2109-.1485-.3828-.3594-.4062-2.1172-.2812-2.1641-.3281-2.4297-2.4062-.0235-.2188-.1875-.37505-.4063-.37505-.2187 0-.3828.15625-.4062.38285-.2422 2-.2891 2.0234-2.43751 2.3984-.20313.0391-.35157.1953-.35157.4062 0 .2188.14844.375.39844.4063 2.08594.3125 2.14844.3828 2.39064 2.3984.0234.2266.1875.3829.4062.3829zm5.8047 8.5859c.2969 0 .5391-.2188.5781-.5313.5938-4.0937 1.1563-4.7656 5.2188-5.2265.3203-.0313.5469-.2891.5469-.586 0-.3047-.2266-.5468-.5469-.5937-3.9688-.5391-4.5234-1.0625-5.2188-5.2266-.0468-.3125-.289-.5312-.5781-.5312-.3047 0-.539.2187-.5859.5312-.586 4.0938-1.1563 4.7656-5.211 5.2266-.3203.039-.5468.289-.5468.5937 0 .2969.2265.5469.5468.586 3.961.5625 4.5157 1.0625 5.211 5.2265.0547.3125.289.5313.5859.5313z"/></g></svg>

<svg width="32" height="32" viewBox="0 0 32 32" fill="none" xmlns="http://www.w3.org/2000/svg">
<rect opacity="0.06" width="32" height="32" rx="10" fill="#00A396"/>
<path d="M15.3438 10.5781C15.4766 10.5781 15.5781 10.4844 15.5938 10.3516C15.7891 9.10938 15.7812 9.10938 17.1094 8.84375C17.25 8.82031 17.3438 8.72656 17.3438 8.59375C17.3438 8.45312 17.2422 8.35938 17.1016 8.33594C15.7812 8.14062 15.7891 8.125 15.5938 6.83594C15.5781 6.70312 15.4766 6.60156 15.3438 6.60156C15.2031 6.60156 15.1094 6.70312 15.0938 6.84375C14.9141 8.07031 14.9141 8.07031 13.5703 8.33594C13.4375 8.36719 13.3438 8.45312 13.3438 8.59375C13.3438 8.72656 13.4375 8.82031 13.5938 8.84375C14.8984 9.07812 14.9062 9.07812 15.0938 10.3438C15.1094 10.4844 15.2031 10.5781 15.3438 10.5781ZM11.5234 16.3438C11.7344 16.3438 11.9062 16.1875 11.9297 15.9844C12.1953 13.9766 12.2188 13.9453 14.3672 13.5625C14.5781 13.5312 14.7188 13.3672 14.7188 13.1562C14.7188 12.9453 14.5703 12.7734 14.3594 12.75C12.2422 12.4688 12.1953 12.4219 11.9297 10.3438C11.9062 10.125 11.7422 9.96875 11.5234 9.96875C11.3047 9.96875 11.1406 10.125 11.1172 10.3516C10.875 12.3516 10.8281 12.375 8.67969 12.75C8.47656 12.7891 8.32812 12.9453 8.32812 13.1562C8.32812 13.375 8.47656 13.5312 8.72656 13.5625C10.8125 13.875 10.875 13.9453 11.1172 15.9609C11.1406 16.1875 11.3047 16.3438 11.5234 16.3438ZM17.3281 24.9297C17.625 24.9297 17.8672 24.7109 17.9062 24.3984C18.5 20.3047 19.0625 19.6328 23.125 19.1719C23.4453 19.1406 23.6719 18.8828 23.6719 18.5859C23.6719 18.2812 23.4453 18.0391 23.125 17.9922C19.1562 17.4531 18.6016 16.9297 17.9062 12.7656C17.8594 12.4531 17.6172 12.2344 17.3281 12.2344C17.0234 12.2344 16.7891 12.4531 16.7422 12.7656C16.1562 16.8594 15.5859 17.5312 11.5312 17.9922C11.2109 18.0312 10.9844 18.2812 10.9844 18.5859C10.9844 18.8828 11.2109 19.1328 11.5312 19.1719C15.4922 19.7344 16.0469 20.2344 16.7422 24.3984C16.7969 24.7109 17.0312 24.9297 17.3281 24.9297Z" fill="#00A396"/>
</svg>
